src/components/Icon/assets/email-unread.svg

<svg width="24" height="24" viewBox="0 0 24 24" fill="none" xmlns="http://www.w3.org/2000/svg">
<path fill-rule="evenodd" clip-rule="evenodd" d="M19.5002 10C21.4332 10 23.0002 8.433 23.0002 6.5C23.0002 4.567 21.4332 3 19.5002 3C17.5672 3 16.0002 4.567 16.0002 6.5C16.0002 8.433 17.5672 10 19.5002 10ZM13.8962 5.0001V7.0001L4.00001 7V7.93912L11.999 12.827L15.7272 10.5508L16.77 12.2574L12.9135 14.6139C12.3997 14.9286 11.764 14.9548 11.2305 14.6929L11.0878 14.6144L4.00001 10.283V17H20L20.0002 12.0001H22.0002V17.5001C22.0002 18.2797 21.4052 18.9205 20.6447 18.9932L20.5002 19.0001H3.50021C2.72065 19.0001 2.07978 18.4051 2.00708 17.6445L2.00021 17.5001V6.5001C2.00021 5.72054 2.59523 5.07967 3.35578 5.00697L3.50021 5.0001H13.8962Z" fill="#65676A"/>
</svg>

<svg xmlns="http://www.w3.org/2000/svg" width="24" height="24" viewBox="0 0 24 24">
    <path fill="#65676A" fill-rule="evenodd" d="M13.896 5v2H4v.938l7.999 4.889 3.728-2.276 1.043 1.706-3.856 2.357c-.514.315-1.15.34-1.683.079l-.143-.079-7.089-4.332L4 17h16v-5h2v5.5c0 .78-.595 1.42-1.355 1.493L20.5 19h-17c-.78 0-1.42-.595-1.493-1.355L2 17.5v-11c0-.78.595-1.42 1.356-1.493L3.5 5h10.396zm5.604 5c1.933 0 3.5-1.567 3.5-3.5S21.433 3 19.5 3 16 4.567 16 6.5s1.567 3.5 3.5 3.5z"/>
</svg>
